X:1
T:Title
%%score { 1 | ( 2 3 ) }
L:1/8
Q:1/4=100
M:4/4
K:Bb
V:1 treble nm="Grand Piano"
V:2 bass 
V:3 bass 
V:1
 [DF]>[DF] [DF]>[DF] [B,D]2 [DF]2 | [FB]>[Fc] [GB]>[EG] [EG]2 [DF]2 | A>A A>B c2 F2 | %3
w: A.~B.~Simpson * * * * *|||
 [FB]2 [Fc]>[Fd] [Fc]4 | [Fd]>[DB] [EA]>[Ec] [DB]2 [DF]2 | G>A B>G [EG]2 [DF]2 | B>A B>G FBBc | %7
w: ||||
 d2 c2 [B,DB]4 | B>F D>E F2 B2 | A2 c2 [B,DB]4 | G>F E>F G2 [CEA]2 | [DB]2 .[C=EG]2 [_Ec]4 | %12
w: |||||
 [Fd]>[F_d] [F=d]>[Fe] [Ff]2 [Fd][Ec] | [DB]2 F2 G4 | F[DB]BG FBBc | d2 c2 [DB]4 |] %16
w: ||||
V:2
 [B,,B,]>[B,,B,] [B,,B,]>[B,,B,] [B,,F,]2 [B,,B,]2 | %1
 [D,B,]>[D,B,] [E,B,]>[E,B,] [B,,B,]2 [B,,B,]2 | [F,E]>[F,E] [F,E]>[F,D] [F,A,E]2 [F,A,E]2 | %3
 [D,B,]2 [C,A,]>[B,,B,] [F,A,]4 | [B,,B,]>[B,,F,] [B,,F,]>[B,,F,] [B,,F,]2 [B,,B,]2 | %5
 [E,B,E]>[E,B,E] [E,G,E]>[E,B,E] [B,,B,]2 [B,,B,]2 | %6
 [G,D]>[G,D] [E,G,E]>[E,B,_D] [F,B,=D][F,DF][G,C=E][G,CE] | [F,B,F]2 [F,A,E]2 B,,4 | %8
 B,>F, D,>E, F,2 [F,D]2 | [F,CE]2 [F,A,E]2 B,,4 | G,>F, E,>F, G,2 F,2 | G,2 z B, [F,A,]4 | %12
 [B,,B,]>[B,,B,] [B,,B,]>[C,A,] [D,B,]2 [B,,B,]2 | [B,,F,]2 [D,F,B,]2 [E,B,]4 | %14
 [D,F,B,][B,,F,][E,G,E][=E,B,_D] [F,B,=D][F,DF][G,C=E][G,CE] | [F,B,F]2 [F,A,E]2 [B,,B,]4 |] %16
V:3
 x8 | x8 | x8 | x8 | x8 | x8 | x8 | x8 | x8 | x8 | x8 | z2 C,2 z4 | x8 | x8 | x8 | x8 |] %16

